assets/img/icons/duotone-icons/Shopping/Box#1.svg

<?xml version="1.0" encoding="UTF-8"?>
<svg width="24px" height="24px" viewBox="0 0 24 24" version="1.1" xmlns="http://www.w3.org/2000/svg" xmlns:xlink="http://www.w3.org/1999/xlink">
    <!-- Generator: Sketch 52.2 (67145) - http://www.bohemiancoding.com/sketch -->
    <title>Stockholm-icons / Shopping / Box#1</title>
    <desc>Created with Sketch.</desc>
    <g id="Stockholm-icons-/-Shopping-/-Box#1" stroke="none" stroke-width="1" fill="none" fill-rule="evenodd">
        <rect id="bound" x="0" y="0" width="24" height="24"></rect>
        <polygon id="Rectangle" fill="#335EEA" opacity="0.3" points="6 3 18 3 20 6.5 4 6.5"></polygon>
        <path d="M6,5 L18,5 C19.1045695,5 20,5.8954305 20,7 L20,19 C20,20.1045695 19.1045695,21 18,21 L6,21 C4.8954305,21 4,20.1045695 4,19 L4,7 C4,5.8954305 4.8954305,5 6,5 Z M9,9 C8.44771525,9 8,9.44771525 8,10 C8,10.5522847 8.44771525,11 9,11 L15,11 C15.5522847,11 16,10.5522847 16,10 C16,9.44771525 15.5522847,9 15,9 L9,9 Z" id="Combined-Shape" fill="#335EEA"></path>
    </g>
</svg>

<svg width="24" height="24" viewBox="0 0 24 24" xmlns="http://www.w3.org/2000/svg"><g fill="none" fill-rule="evenodd"><path d="M0 0h24v24H0z"/><path fill="#335EEA" opacity=".3" d="M6 3h12l2 3.5H4z"/><path d="M6 5h12a2 2 0 012 2v12a2 2 0 01-2 2H6a2 2 0 01-2-2V7a2 2 0 012-2zm3 4a1 1 0 100 2h6a1 1 0 000-2H9z" fill="#335EEA"/></g></svg>
